assets/illustrations/default/professional-1.svg

<svg xmlns="http://www.w3.org/2000/svg" width="1080" height="1081" fill="none"><path fill="#8C3A03" d="M571.127 72.414H749.41L763 86.004v335.373H631.309v-53.711h-60.182l-13.59-13.59V86.166z"/><path fill="url(#a)" d="M747.631 343.071H763v-56.138h-15.369z"/><path fill="#141414" d="m780.473 334.014-17.472 18.282V217.208h20.223v110.173a9.44 9.44 0 0 1-2.751 6.633"/><path fill="url(#b)" d="m677.74 386.433-46.431 34.945v-53.712h46.431z"/><path fill="#141414" fill-rule="evenodd" d="M610.925 218.865a2.427 2.427 0 0 1 1.254 3.195l-28.447 65.198h29.297a2.427 2.427 0 0 1 0 4.854h-33.004a2.427 2.427 0 0 1-2.224-3.398l29.93-68.595a2.427 2.427 0 0 1 3.194-1.254" clip-rule="evenodd"/><path fill="#141414" d="M557.537 150.877h224.391V62.221c0-5.34-4.368-9.707-9.707-9.707H567.244c-5.339 0-9.707 4.368-9.707 9.707z"/><path fill="#141414" d="m737.923 219.476 45.299 31.385V62.386c0-5.34-4.368-9.707-9.707-9.707h-39.636v158.869c0 3.074 1.456 5.986 4.044 7.928"/><path fill="#FCE173" d="m278.948 437.718 41.74 117.615 85.421-113.085c25.723-34.136 65.521-54.359 108.07-55.491l401.704 51.932 9.06 2.912c48.696 16.016 84.777 57.432 93.837 107.908l9.86 379.54H439.112V778.592l-43.357 61.962c-48.373 68.919-154.825 52.094-179.416-28.473L116.034 483.179z"/><path fill="#8C3A03" d="m507.063 693.655-16.339 4.53 16.987 10.516z"/><path fill="url(#c)" d="m62.001 281.756 53.712 49.343-37.534-88.98 14.075-11.001 51.932 77.817-21.679-114.703 21.679-5.986 39.151 109.85.162-96.098 19.252-3.398 27.018 151.751 32.033-45.946 16.339 4.53-33.488 101.923 8.412 33.974-119.718 33.974-33.65-110.173L51 293.728z"/><path fill="url(#d)" d="M850.038 649.323v279.883H438.789z"/><path fill="url(#e)" d="M438.792 778.753V559.377l-51.285 291.207z"/><path fill="url(#f)" d="m320.688 555.171 45.947 130.558-18.605-166.797z"/><path fill="#0C4EC0" d="m717.701 896.369-176.504-39.474V599.5l180.71 40.284c4.368.97 7.604 4.853 7.604 9.545v237.657c.162 6.148-5.662 10.839-11.81 9.383"/><path fill="#0C4EC0" d="m503.827 676.185 37.372-20.708V599.5l-37.372 20.546z"/><path fill="#fff" d="m711.557 904.621-170.356-38.99V628.459l-29.444-4.529 29.444-16.017 173.753 39.798c3.56.809 5.987 3.883 5.987 7.604v241.54c.161 5.177-4.53 8.898-9.384 7.766"/><path fill="#0096FA" d="m680.331 917.078-168.9-37.695c-4.368-.971-7.604-4.854-7.604-9.545V620.047l180.711 40.284c4.368.97 7.603 4.853 7.603 9.545v237.657c0 6.309-5.824 10.839-11.81 9.545"/><path fill="#8C3A03" d="M560.613 724.719h-2.265l-12.619-62.124 12.943-7.281 46.593 88.333 38.019 16.178-28.15 104.026-124.41-47.887V698.187z"/><path fill="#FCE173" d="M885.633 1020.29c-.486-.32-1.133-.49-1.618-.81L580.513 880.186 653.8 722.935l242.51 110.82c10.031-3.236 20.547-5.177 31.71-5.177 55.491 0 100.47 44.975 100.47 100.466 0 55.492-44.979 100.466-100.47 100.466-14.722 0-28.798-3.23-41.416-8.9z"/><path fill="#C5D9FB" d="m691.17 409.567-56.623 63.095-41.901-75.876z"/><path fill="#C5D9FB" d="m691.168 409.564 37.048 76.847 62.771-63.904z"/><path fill="#8C3A03" d="M779.18 286.934h-37.371v-58.565h50.637v45.299c0 7.28-5.986 13.266-13.266 13.266"/><path fill="#E0E0E0" fill-rule="evenodd" d="M652.18 203.944c-12.151 0-22.002 9.851-22.002 22.003s9.851 22.002 22.002 22.002c12.152 0 22.002-9.851 22.002-22.002 0-12.152-9.85-22.003-22.002-22.003m-26.856 22.003c0-14.832 12.024-26.856 26.856-26.856s26.856 12.024 26.856 26.856-12.024 26.855-26.856 26.855-26.856-12.023-26.856-26.855" clip-rule="evenodd"/><path fill="#E0E0E0" fill-rule="evenodd" d="M609.47 213.486c-6.849 0-12.819 3.051-16.916 7.88a2.427 2.427 0 0 1-3.701-3.14c4.962-5.849 12.258-9.593 20.617-9.593 8.377 0 15.828 3.92 20.778 9.754a2.427 2.427 0 0 1-3.7 3.141c-4.11-4.844-10.248-8.042-17.078-8.042" clip-rule="evenodd"/><path fill="#E0E0E0" fill-rule="evenodd" d="M567.084 203.944c-12.151 0-22.002 9.851-22.002 22.003s9.851 22.002 22.002 22.002c12.152 0 22.003-9.851 22.003-22.002 0-12.152-9.851-22.003-22.003-22.003m-26.855 22.003c0-14.832 12.023-26.856 26.855-26.856s26.856 12.024 26.856 26.856-12.024 26.855-26.856 26.855-26.855-12.023-26.855-26.855M674.181 225.942a2.426 2.426 0 0 1 2.426-2.426h85.098a2.426 2.426 0 1 1 0 4.853h-85.098a2.426 2.426 0 0 1-2.426-2.427" clip-rule="evenodd"/><defs><linearGradient id="a" x1="732.703" x2="784.276" y1="324.372" y2="303.048" gradientUnits="userSpaceOnUse"><stop offset=".297" stop-color="#8C3A03"/><stop offset=".424" stop-color="#883904"/><stop offset=".553" stop-color="#7C3505"/><stop offset=".682" stop-color="#672E08"/><stop offset=".813" stop-color="#4B250C"/><stop offset=".942" stop-color="#271A11"/><stop offset="1" stop-color="#141414"/></linearGradient><linearGradient id="b" x1="671.352" x2="616.718" y1="410.622" y2="358.195" gradientUnits="userSpaceOnUse"><stop offset=".158" stop-color="#8C3A03"/><stop offset=".31" stop-color="#883904"/><stop offset=".464" stop-color="#7C3505"/><stop offset=".62" stop-color="#672E08"/><stop offset=".776" stop-color="#4B250C"/><stop offset=".931" stop-color="#271A11"/><stop offset="1" stop-color="#141414"/></linearGradient><linearGradient id="c" x1="169.104" x2="196.145" y1="339.204" y2="566.995" gradientUnits="userSpaceOnUse"><stop offset=".158" stop-color="#8C3A03"/><stop offset=".31" stop-color="#883904"/><stop offset=".464" stop-color="#7C3505"/><stop offset=".62" stop-color="#672E08"/><stop offset=".776" stop-color="#4B250C"/><stop offset=".931" stop-color="#271A11"/><stop offset="1" stop-color="#141414"/></linearGradient><linearGradient id="d" x1="597.244" x2="811.522" y1="711.962" y2="1062.97" gradientUnits="userSpaceOnUse"><stop offset=".209" stop-color="#FCE173"/><stop offset=".646" stop-color="#C8AA33"/><stop offset=".958" stop-color="#A08103"/></linearGradient><linearGradient id="e" x1="371.174" x2="503.019" y1="696.94" y2="722.213" gradientUnits="userSpaceOnUse"><stop offset=".317" stop-color="#FCE173"/><stop offset=".399" stop-color="#EFD464"/><stop offset=".558" stop-color="#CEB13B"/><stop offset=".75" stop-color="#A08103"/></linearGradient><linearGradient id="f" x1="360.861" x2="301.779" y1="602.072" y2="606.313" gradientUnits="userSpaceOnUse"><stop offset=".069" stop-color="#FCE173"/><stop offset=".236" stop-color="#EFD464"/><stop offset=".557" stop-color="#CEB13B"/><stop offset=".945" stop-color="#A08103"/></linearGradient></defs></svg>

<svg width="1080" height="1081" viewBox="0 0 1080 1081" fill="none" xmlns="http://www.w3.org/2000/svg">
<path d="M571.127 72.4141H749.41L763 86.0038V421.377H631.309V367.666H571.127C565.788 362.327 562.876 359.415 557.537 354.076V86.1655L571.127 72.4141Z" fill="#8C3A03"/>
<path d="M747.631 343.071H763V286.933H747.631V343.071Z" fill="url(#paint0_linear_18735_2855)"/>
<path d="M780.473 334.014L763.001 352.296V217.208H783.224V327.381C783.224 329.808 782.253 332.235 780.473 334.014Z" fill="#141414"/>
<path d="M677.74 386.433L631.309 421.378V367.666H677.74V386.433Z" fill="url(#paint1_linear_18735_2855)"/>
<path fill-rule="evenodd" clip-rule="evenodd" d="M610.925 218.865C612.154 219.401 612.715 220.832 612.179 222.06L583.732 287.258H613.029C614.369 287.258 615.455 288.345 615.455 289.685C615.455 291.025 614.369 292.112 613.029 292.112H580.025C579.207 292.112 578.443 291.699 577.995 291.014C577.547 290.329 577.474 289.465 577.801 288.714L607.731 220.119C608.267 218.891 609.697 218.329 610.925 218.865Z" fill="#141414"/>
<path d="M557.537 150.877H781.928V62.2206C781.928 56.8818 777.56 52.5137 772.221 52.5137H567.244C561.905 52.5137 557.537 56.8818 557.537 62.2206V150.877Z" fill="#141414"/>
<path d="M737.923 219.476L783.222 250.861V62.3856C783.222 57.0468 778.854 52.6787 773.515 52.6787H733.879V211.548C733.879 214.622 735.335 217.534 737.923 219.476Z" fill="#141414"/>
<path d="M278.948 437.718L320.688 555.333L406.109 442.248C431.832 408.112 471.63 387.889 514.179 386.757L915.883 438.689L924.943 441.601C973.639 457.617 1009.72 499.033 1018.78 549.509L1028.64 929.049H439.112V778.592L395.755 840.554C347.382 909.473 240.93 892.648 216.339 812.081L116.034 483.179L278.948 437.718Z" fill="#FCE173"/>
<path d="M507.063 693.655L490.724 698.185L507.711 708.701L507.063 693.655Z" fill="#8C3A03"/>
<path d="M62.0012 281.756L115.713 331.099L78.1794 242.119L92.2543 231.118L144.186 308.935L122.507 194.232L144.186 188.246L183.337 298.096L183.499 201.998L202.751 198.6L229.769 350.351L261.802 304.405L278.141 308.935L244.653 410.858L253.065 444.832L133.347 478.806L99.6964 368.633L51 293.728L62.0012 281.756Z" fill="url(#paint2_linear_18735_2855)"/>
<path d="M850.038 649.323V929.206H438.789L850.038 649.323Z" fill="url(#paint3_linear_18735_2855)"/>
<path d="M438.792 778.753V559.377L387.507 850.584L438.792 778.753Z" fill="url(#paint4_linear_18735_2855)"/>
<path d="M320.688 555.171L366.635 685.729L348.03 518.932L320.688 555.171Z" fill="url(#paint5_linear_18735_2855)"/>
<path d="M717.701 896.369L541.197 856.895V599.5L721.907 639.784C726.275 640.754 729.511 644.637 729.511 649.329V886.986C729.673 893.134 723.849 897.825 717.701 896.369Z" fill="#0C4EC0"/>
<path d="M503.827 676.185L541.199 655.477V599.5L503.827 620.046V676.185Z" fill="#0C4EC0"/>
<path d="M711.557 904.621L541.201 865.631V628.459L511.757 623.93L541.201 607.913L714.954 647.711C718.514 648.52 720.941 651.594 720.941 655.315V896.855C721.102 902.032 716.411 905.753 711.557 904.621Z" fill="white"/>
<path d="M680.331 917.078L511.431 879.383C507.063 878.412 503.827 874.529 503.827 869.838V620.047L684.538 660.331C688.906 661.301 692.141 665.184 692.141 669.876V907.533C692.141 913.842 686.317 918.372 680.331 917.078Z" fill="#0096FA"/>
<path d="M560.613 724.719H558.348L545.729 662.595L558.672 655.314L605.265 743.647L643.284 759.825L615.134 863.851L490.724 815.964V698.187L560.613 724.719Z" fill="#8C3A03"/>
<path d="M885.633 1020.29C885.147 1019.97 884.5 1019.8 884.015 1019.48L580.513 880.186L653.8 722.935L896.31 833.755C906.341 830.519 916.857 828.578 928.02 828.578C983.511 828.578 1028.49 873.553 1028.49 929.044C1028.49 984.536 983.511 1029.51 928.02 1029.51C913.298 1029.51 899.222 1026.28 886.604 1020.61L885.633 1020.29Z" fill="#FCE173"/>
<path d="M691.17 409.567L634.547 472.662L592.646 396.786L691.17 409.567Z" fill="#C5D9FB"/>
<path d="M691.168 409.564L728.216 486.411L790.987 422.507L691.168 409.564Z" fill="#C5D9FB"/>
<path d="M779.18 286.934H741.809V228.369H792.446V273.668C792.446 280.948 786.46 286.934 779.18 286.934Z" fill="#8C3A03"/>
<path fill-rule="evenodd" clip-rule="evenodd" d="M652.18 203.944C640.029 203.944 630.178 213.795 630.178 225.947C630.178 238.098 640.029 247.949 652.18 247.949C664.332 247.949 674.182 238.098 674.182 225.947C674.182 213.795 664.332 203.944 652.18 203.944ZM625.324 225.947C625.324 211.115 637.348 199.091 652.18 199.091C667.012 199.091 679.036 211.115 679.036 225.947C679.036 240.779 667.012 252.802 652.18 252.802C637.348 252.802 625.324 240.779 625.324 225.947Z" fill="#E0E0E0"/>
<path fill-rule="evenodd" clip-rule="evenodd" d="M609.47 213.486C602.621 213.486 596.651 216.537 592.554 221.366C591.686 222.388 590.155 222.513 589.133 221.646C588.111 220.779 587.986 219.248 588.853 218.226C593.815 212.377 601.111 208.633 609.47 208.633C617.847 208.633 625.298 212.553 630.248 218.387C631.115 219.409 630.99 220.941 629.968 221.808C628.946 222.675 627.415 222.55 626.548 221.528C622.438 216.684 616.3 213.486 609.47 213.486Z" fill="#E0E0E0"/>
<path fill-rule="evenodd" clip-rule="evenodd" d="M567.084 203.944C554.933 203.944 545.082 213.795 545.082 225.947C545.082 238.098 554.933 247.949 567.084 247.949C579.236 247.949 589.087 238.098 589.087 225.947C589.087 213.795 579.236 203.944 567.084 203.944ZM540.229 225.947C540.229 211.115 552.252 199.091 567.084 199.091C581.916 199.091 593.94 211.115 593.94 225.947C593.94 240.779 581.916 252.802 567.084 252.802C552.252 252.802 540.229 240.779 540.229 225.947Z" fill="#E0E0E0"/>
<path fill-rule="evenodd" clip-rule="evenodd" d="M674.181 225.942C674.181 224.602 675.267 223.516 676.607 223.516H761.705C763.045 223.516 764.131 224.602 764.131 225.942C764.131 227.283 763.045 228.369 761.705 228.369H676.607C675.267 228.369 674.181 227.283 674.181 225.942Z" fill="#E0E0E0"/>
<defs>
<linearGradient id="paint0_linear_18735_2855" x1="732.703" y1="324.372" x2="784.276" y2="303.048" gradientUnits="userSpaceOnUse">
<stop offset="0.2969" stop-color="#8C3A03"/>
<stop offset="0.424" stop-color="#883904"/>
<stop offset="0.5528" stop-color="#7C3505"/>
<stop offset="0.6824" stop-color="#672E08"/>
<stop offset="0.8127" stop-color="#4B250C"/>
<stop offset="0.9422" stop-color="#271A11"/>
<stop offset="1" stop-color="#141414"/>
</linearGradient>
<linearGradient id="paint1_linear_18735_2855" x1="671.352" y1="410.622" x2="616.718" y2="358.195" gradientUnits="userSpaceOnUse">
<stop offset="0.1577" stop-color="#8C3A03"/>
<stop offset="0.31" stop-color="#883904"/>
<stop offset="0.4643" stop-color="#7C3505"/>
<stop offset="0.6196" stop-color="#672E08"/>
<stop offset="0.7756" stop-color="#4B250C"/>
<stop offset="0.9307" stop-color="#271A11"/>
<stop offset="1" stop-color="#141414"/>
</linearGradient>
<linearGradient id="paint2_linear_18735_2855" x1="169.104" y1="339.204" x2="196.145" y2="566.995" gradientUnits="userSpaceOnUse">
<stop offset="0.1577" stop-color="#8C3A03"/>
<stop offset="0.31" stop-color="#883904"/>
<stop offset="0.4643" stop-color="#7C3505"/>
<stop offset="0.6196" stop-color="#672E08"/>
<stop offset="0.7756" stop-color="#4B250C"/>
<stop offset="0.9307" stop-color="#271A11"/>
<stop offset="1" stop-color="#141414"/>
</linearGradient>
<linearGradient id="paint3_linear_18735_2855" x1="597.244" y1="711.962" x2="811.522" y2="1062.97" gradientUnits="userSpaceOnUse">
<stop offset="0.2094" stop-color="#FCE173"/>
<stop offset="0.6456" stop-color="#C8AA33"/>
<stop offset="0.9575" stop-color="#A08103"/>
</linearGradient>
<linearGradient id="paint4_linear_18735_2855" x1="371.174" y1="696.94" x2="503.019" y2="722.213" gradientUnits="userSpaceOnUse">
<stop offset="0.3168" stop-color="#FCE173"/>
<stop offset="0.3991" stop-color="#EFD464"/>
<stop offset="0.5584" stop-color="#CEB13B"/>
<stop offset="0.7502" stop-color="#A08103"/>
</linearGradient>
<linearGradient id="paint5_linear_18735_2855" x1="360.861" y1="602.072" x2="301.779" y2="606.313" gradientUnits="userSpaceOnUse">
<stop offset="0.069479" stop-color="#FCE173"/>
<stop offset="0.2356" stop-color="#EFD464"/>
<stop offset="0.5574" stop-color="#CEB13B"/>
<stop offset="0.9449" stop-color="#A08103"/>
</linearGradient>
</defs>
</svg>
